images/icons/v2/profile-outline-40.svg

<svg height="40" viewBox="0 0 40 40" width="40" xmlns="http://www.w3.org/2000/svg"><path d="m25.009 20.07a7.5 7.5 0 1 0 -10.018 0 8 8 0 0 0 -6.991 7.93v1h1.5v-1a6.508 6.508 0 0 1 6.5-6.5h8a6.508 6.508 0 0 1 6.5 6.5v1h1.5v-1a8 8 0 0 0 -6.991-7.93zm-5.009.43a6 6 0 1 1 6-6 6 6 0 0 1 -6 6z"/></svg>

<svg xmlns="http://www.w3.org/2000/svg" width="40" height="40" viewBox="0 0 40 40"><title>profile-outline-40</title><path d="M25.009,20.07a7.5,7.5,0,1,0-10.018,0A8,8,0,0,0,8,28v1H9.5V28A6.508,6.508,0,0,1,16,21.5h8A6.508,6.508,0,0,1,30.5,28v1H32V28A8,8,0,0,0,25.009,20.07ZM20,20.5a6,6,0,1,1,6-6A6,6,0,0,1,20,20.5Z"/></svg>
